Super Flat Remix/apps/scalable/codeblocks.svg

<?xml version="1.0" encoding="UTF-8" standalone="no"?>
<!-- Created with Inkscape (http://www.inkscape.org/) -->

<svg
   xmlns:dc="http://purl.org/dc/elements/1.1/"
   xmlns:cc="http://creativecommons.org/ns#"
   xmlns:rdf="http://www.w3.org/1999/02/22-rdf-syntax-ns#"
   xmlns:svg="http://www.w3.org/2000/svg"
   xmlns="http://www.w3.org/2000/svg"
   xmlns:sodipodi="http://sodipodi.sourceforge.net/DTD/sodipodi-0.dtd"
   xmlns:inkscape="http://www.inkscape.org/namespaces/inkscape"
   id="svg2"
   version="1.1"
   inkscape:version="0.91+devel r14333 custom"
   width="512"
   height="512"
   sodipodi:docname="codeblocks.svg"
   viewBox="0 0 512 512">
  <metadata
     id="metadata8">
    <rdf:RDF>
      <cc:Work
         rdf:about="">
        <dc:format>image/svg+xml</dc:format>
        <dc:type
           rdf:resource="http://purl.org/dc/dcmitype/StillImage" />
        <dc:title></dc:title>
      </cc:Work>
    </rdf:RDF>
  </metadata>
  <defs
     id="defs6" />
  <sodipodi:namedview
     pagecolor="#ffffff"
     bordercolor="#666666"
     borderopacity="1"
     objecttolerance="10"
     gridtolerance="10"
     guidetolerance="10"
     inkscape:pageopacity="0"
     inkscape:pageshadow="2"
     inkscape:window-width="1920"
     inkscape:window-height="1017"
     id="namedview4"
     showgrid="false"
     inkscape:zoom="1.7539062"
     inkscape:cx="232.47577"
     inkscape:cy="264.07097"
     inkscape:window-x="0"
     inkscape:window-y="32"
     inkscape:window-maximized="1"
     inkscape:current-layer="svg2"
     showguides="true"
     inkscape:guide-bbox="true"
     inkscape:document-units="px" />
  <path
     style="fill:#367bf0;fill-opacity:1;stroke-width:1.08725166"
     d="m 267.7421,480.67118 c -0.39073,-0.40147 0,-48.36879 0,-106.38626 V 268.2339 l 106.05896,0.84369 106.82666,0.27902 0.27335,80.27814 c 0.30202,88.70882 0.33327,88.21373 -6.39762,101.37224 -4.37097,8.545 -14.43631,18.88988 -22.74617,23.3779 -12.72488,6.87251 -11.8274,6.53752 -101.75469,6.55536 -44.88407,0.009 -81.86977,0.13243 -82.26049,-0.26907 z"
     id="path3009"
     inkscape:connector-curvature="0"
     sodipodi:nodetypes="cscccssssc" />
  <path
     style="fill:#d41a1a;fill-opacity:1;stroke-width:1.08725166"
     d="M 31.434606,162.60065 C 31.444306,91.892905 31.71745,75.368877 32.945763,71.239418 38.449862,52.735305 53.101776,38.236488 71.703311,32.886798 76.114728,31.618109 92.03904,31.34222 160.85712,31.34222 h 83.7831 V 139.8521 248.64132 H 138.0316 31.435579 l -0.001,-86.04065 z"
     id="path3025"
     inkscape:connector-curvature="0"
     sodipodi:nodetypes="csssccccccc" />
  <path
     style="fill:#1ba389;fill-opacity:1;stroke-width:1.08725166"
     d="m 268.01489,140.03538 0.27277,-108.679989 79.20714,-0.298026 c 51.45111,-0.193591 81.83273,0.105556 86.69972,0.853597 22.7086,3.490401 41.67182,22.534794 45.40519,45.599558 0.8481,5.239598 1.12434,32.06708 0.91712,89.0723 l 0.0733,82.0585 -106.60885,-0.20499 -106.2391,0.20499 z"
     id="path2986"
     inkscape:connector-curvature="0"
     sodipodi:nodetypes="ccsssscccc" />
  <path
     style="fill:#ffc82d;fill-opacity:1;stroke-width:1.08725166"
     d="m 244.64022,480.81494 c 0.39072,-0.40148 0,-57.46536 0,-106.77557 V 268.2339 l -106.4413,0.46077 -106.826639,0.27902 -0.273348,80.27814 c -0.302025,88.70881 -0.333273,88.21373 6.397614,101.37224 4.370968,8.54499 14.436313,18.88988 22.746176,23.3779 12.724879,6.87251 11.827399,6.81226 101.754657,6.8301 44.88407,0.009 82.25212,0.38436 82.64284,-0.0172 z"
     id="path3009-2"
     inkscape:connector-curvature="0"
     sodipodi:nodetypes="cscccssssc" />
  <path
     style="opacity:0.3;fill:#000000;fill-opacity:1;stroke-width:1.08725166"
     d="m 278.26172,41.318359 -9.97461,0.03711 -0.27149,98.679691 -0.24804,98.60546 -0.0254,10 106.23828,-0.20507 106.60937,0.20507 -0.01,-10 v -0.0195 l -96.59961,-0.18554 -4.99024,0.01 -5.00781,-0.01 -96.24023,0.18554 0.27343,-108.58593 z m -43.6211,0.02344 V 129.85156 238.64062 H 138.0332 31.435547 v 10 H 138.03125 244.64062 v -10 -98.78906 -98.509763 z m 245.92969,84.150393 c -2.5e-4,9.34842 -0.009,19.18908 -0.0527,31.08984 l 0.006,6.55859 c 0.048,-14.45358 0.0661,-27.09372 0.0469,-37.64843 z m -235.92969,142.74219 -106.4414,0.46093 -106.826173,0.2793 -0.0332,9.97461 96.859376,-0.25391 106.4414,-0.46093 v 105.80468 c 0,31.83383 0.1519,65.98746 0.16211,86.94727 -13.8079,0.0315 -41.07262,-0.14794 -72.80664,-0.1543 -89.927255,-0.0178 -89.027069,0.0424 -101.751949,-6.83008 -8.30986,-4.48802 -18.377077,-14.83391 -22.748047,-23.3789 -5.574195,-10.89724 -6.492617,-13.20378 -6.478516,-63.79297 -0.131074,60.99489 0.539944,62.18339 6.478516,73.79297 4.37097,8.54499 14.436232,18.89087 22.746094,23.3789 12.724879,6.8725 11.828606,6.81224 101.755862,6.83008 31.73524,0.006 58.99987,0.18586 72.80664,0.1543 0.002,-1e-5 0.006,0 0.008,0 5.71659,-0.0131 9.71371,-0.0543 9.82812,-0.17188 0.13244,-0.13608 0.15968,-8.21189 0.15821,-18.85937 -1e-5,-0.0378 0,-0.0831 0,-0.1211 -0.003,-20.78262 -0.15821,-55.25807 -0.15821,-87.79492 z m 23.10157,0 v 106.05078 c 0,37.86092 -0.14922,69.93323 -0.15625,88.80859 -0.004,10.04333 0.0207,17.43036 0.15625,17.57617 7e-5,8e-5 -8e-5,0.002 0,0.002 0.002,0.002 0.0503,0.004 0.0547,0.006 0.0614,0.027 0.31717,0.0499 0.71093,0.0723 0.0226,0.001 0.0487,0.003 0.0723,0.004 1.26482,0.0682 4.66175,0.10874 8.72265,0.14062 0.11082,8.7e-4 0.16325,0.003 0.27539,0.004 0,-5.1e-4 10e-6,-0.001 0,-0.002 13.71806,0.10464 40.74009,0.0493 72.42383,0.043 89.92729,-0.0178 89.03098,0.31783 101.75586,-6.55468 8.30986,-4.48802 18.37513,-14.83391 22.7461,-23.37891 5.93857,-11.60957 6.60958,-12.79807 6.47851,-73.79297 0.0141,50.5892 -0.90432,52.89573 -6.47851,63.79297 -4.37097,8.545 -14.43624,18.89089 -22.7461,23.37891 -12.72488,6.87251 -11.82661,6.53688 -101.7539,6.55468 -31.68026,0.006 -58.7011,0.0616 -72.42188,-0.043 0.019,-19.19845 0.16016,-50.43707 0.16016,-86.61132 V 278.23438 l 106.05859,0.84374 96.85938,0.25391 -0.0332,-9.97461 -106.82617,-0.2793 z"
     id="path3009-5"
     inkscape:connector-curvature="0"
     sodipodi:nodetypes="cccccccccccccccccccccccccccccccccccccsccsscssccccccsccsscccccscccsscssccscccccc" />
  <path
     style="opacity:0.3;fill:#ffffff;fill-opacity:1;stroke-width:1.08725166"
     d="m 382.0625,31.003906 c -10.15964,-0.01251 -21.70558,0.0043 -34.56836,0.05273 l -79.20703,0.298828 -0.27149,108.679691 -0.27343,108.60546 h 0.0254 l 0.24804,-98.60546 0.27149,-108.679691 79.20703,-0.298828 c 12.86278,-0.04843 24.40872,-0.06524 34.56836,-0.05273 30.47891,0.03753 48.48257,0.34522 52.13281,0.90625 22.7086,3.4904 41.67093,22.53485 45.4043,45.59961 0.60807,3.756843 0.91776,18.862454 0.9707,47.982424 9.7e-4,-35.43098 -0.29966,-53.836677 -0.9707,-57.982424 -3.73337,-23.064764 -22.6957,-42.109209 -45.4043,-45.59961 -3.65024,-0.561031 -21.6539,-0.868721 -52.13281,-0.90625 z m -221.20508,0.337891 c -68.818076,0 -84.742875,0.276233 -89.154295,1.544922 -18.60153,5.34969 -33.253712,19.849402 -38.757813,38.353515 -1.228309,4.129459 -1.499765,20.653582 -1.509765,91.361326 v 10 c 0.01,-70.70774 0.281457,-87.231866 1.509765,-91.361326 5.504101,-18.50411 20.156283,-33.003825 38.757813,-38.353515 4.41142,-1.26869 20.336219,-1.544922 89.154295,-1.544922 h 83.7832 v -10 z M 480.52344,173.14062 c -0.004,1.2852 -0.001,2.12409 -0.006,3.44141 l 0.0625,72.05859 h 0.01 z M 244.64062,374.03906 v 10 c 0,32.50619 0.15441,66.94091 0.15821,87.73242 0.0675,-17.95406 -0.15821,-60.00445 -0.15821,-97.73242 z m 23.10157,0.2461 c 0,44.47812 -0.22512,82.83441 -0.15625,98.5957 0.008,-18.91229 0.15625,-50.86929 0.15625,-88.5957 z"
     id="path3009-1"
     inkscape:connector-curvature="0"
     sodipodi:nodetypes="sccccccccscccccssccccccsccsccccccsccccsc" />
</svg>

<?xml version="1.0" encoding="UTF-8" standalone="no"?>
<!-- Created with Inkscape (http://www.inkscape.org/) -->

<svg
   xmlns:dc="http://purl.org/dc/elements/1.1/"
   xmlns:cc="http://creativecommons.org/ns#"
   xmlns:rdf="http://www.w3.org/1999/02/22-rdf-syntax-ns#"
   xmlns:svg="http://www.w3.org/2000/svg"
   xmlns="http://www.w3.org/2000/svg"
   xmlns:sodipodi="http://sodipodi.sourceforge.net/DTD/sodipodi-0.dtd"
   xmlns:inkscape="http://www.inkscape.org/namespaces/inkscape"
   id="svg2"
   version="1.1"
   inkscape:version="0.91+devel r14341 custom"
   width="512"
   height="512"
   sodipodi:docname="codeblocks.svg"
   viewBox="0 0 512 512">
  <metadata
     id="metadata8">
    <rdf:RDF>
      <cc:Work
         rdf:about="">
        <dc:format>image/svg+xml</dc:format>
        <dc:type
           rdf:resource="http://purl.org/dc/dcmitype/StillImage" />
        <dc:title />
      </cc:Work>
    </rdf:RDF>
  </metadata>
  <defs
     id="defs6" />
  <sodipodi:namedview
     pagecolor="#ffffff"
     bordercolor="#666666"
     borderopacity="1"
     objecttolerance="10"
     gridtolerance="10"
     guidetolerance="10"
     inkscape:pageopacity="0"
     inkscape:pageshadow="2"
     inkscape:window-width="1920"
     inkscape:window-height="1017"
     id="namedview4"
     showgrid="false"
     inkscape:zoom="0.70710678"
     inkscape:cx="327.69962"
     inkscape:cy="247.21482"
     inkscape:window-x="0"
     inkscape:window-y="32"
     inkscape:window-maximized="1"
     inkscape:current-layer="svg2"
     showguides="true"
     inkscape:guide-bbox="true"
     inkscape:document-units="px" />
  <path
     style="fill:#367bf0;fill-opacity:1;stroke-width:1.08725166"
     d="m 267.7421,480.67118 c -0.39073,-0.40147 0,-48.36879 0,-106.38626 V 268.2339 l 106.05896,0.84369 106.82666,0.27902 0.27335,80.27814 c 0.30202,88.70882 0.33327,88.21373 -6.39762,101.37224 -4.37097,8.545 -14.43631,18.88988 -22.74617,23.3779 -12.72488,6.87251 -11.8274,6.53752 -101.75469,6.55536 -44.88407,0.009 -81.86977,0.13243 -82.26049,-0.26907 z"
     id="path3009"
     inkscape:connector-curvature="0"
     sodipodi:nodetypes="cscccssssc" />
  <path
     style="fill:#d41a1a;fill-opacity:1;stroke-width:1.08725166"
     d="M 31.434606,162.60065 C 31.444306,91.892905 31.71745,75.368877 32.945763,71.239418 38.449862,52.735305 53.101776,38.236488 71.703311,32.886798 76.114728,31.618109 92.03904,31.34222 160.85712,31.34222 h 83.7831 V 139.8521 248.64132 H 138.0316 31.435579 l -0.001,-86.04065 z"
     id="path3025"
     inkscape:connector-curvature="0"
     sodipodi:nodetypes="csssccccccc" />
  <path
     style="fill:#1ba389;fill-opacity:1;stroke-width:1.08725166"
     d="m 268.01489,140.03538 0.27277,-108.679989 79.20714,-0.298026 c 51.45111,-0.193591 81.83273,0.105556 86.69972,0.853597 22.7086,3.490401 41.67182,22.534794 45.40519,45.599558 0.8481,5.239598 1.12434,32.06708 0.91712,89.0723 l 0.0733,82.0585 -106.60885,-0.20499 -106.2391,0.20499 z"
     id="path2986"
     inkscape:connector-curvature="0"
     sodipodi:nodetypes="ccsssscccc" />
  <path
     style="fill:#ffc82d;fill-opacity:1;stroke-width:1.08725166"
     d="m 244.64022,480.81494 c 0.39072,-0.40148 0,-57.46536 0,-106.77557 V 268.2339 l -106.4413,0.46077 -106.826639,0.27902 -0.273348,80.27814 c -0.302025,88.70881 -0.333273,88.21373 6.397614,101.37224 4.370968,8.54499 14.436313,18.88988 22.746176,23.3779 12.724879,6.87251 11.827399,6.81226 101.754657,6.8301 44.88407,0.009 82.25212,0.38436 82.64284,-0.0172 z"
     id="path3009-2"
     inkscape:connector-curvature="0"
     sodipodi:nodetypes="cscccssssc" />
  <path
     style="opacity:0.3;fill:#000000;fill-opacity:1;stroke-width:1.08725166"
     d="M 480.57031 125.49219 C 480.57006 134.84061 480.56128 144.68127 480.51758 156.58203 L 480.52344 163.14062 C 480.57144 148.68705 480.58951 136.0469 480.57031 125.49219 z M 373.98242 238.43555 L 363.39648 238.45508 C 363.06849 238.4666 362.74105 238.48047 362.41016 238.48047 L 350.68164 238.48047 L 277.74219 238.62109 L 277.74219 238.48047 L 267.76758 238.48047 L 267.76758 238.64062 L 267.74219 248.64062 L 373.98047 248.43555 L 480.58984 248.64062 L 480.58008 238.64062 L 480.58008 238.62109 L 383.98047 238.43555 L 378.99023 238.44531 L 373.98242 238.43555 z M 234.64062 238.48047 L 234.64062 238.64062 L 138.0332 238.64062 L 31.435547 238.64062 L 31.435547 248.64062 L 138.03125 248.64062 L 244.64062 248.64062 L 244.64062 238.64062 L 244.64062 238.48047 L 234.64062 238.48047 z M 31.017578 376.83008 C 30.886504 437.82497 31.557522 439.01347 37.496094 450.62305 C 41.867064 459.16804 51.932325 469.51392 60.242188 474.00195 C 72.967067 480.87445 72.070785 480.81419 161.99805 480.83203 C 193.73329 480.83803 220.99792 481.01789 234.80469 480.98633 C 234.80669 480.98632 234.8105 480.98633 234.8125 480.98633 C 240.52909 480.97323 244.52621 480.93203 244.64062 480.81445 C 244.72877 480.72388 244.7618 476.44066 244.7793 470.89844 L 234.80273 470.89844 C 234.80275 470.92185 234.80272 470.96295 234.80273 470.98633 C 220.99483 471.01783 193.73011 470.83839 161.99609 470.83203 C 72.068847 470.81423 72.969021 470.87443 60.244141 464.00195 C 51.934281 459.51393 41.867064 449.16804 37.496094 440.62305 C 31.921899 429.72581 31.003477 427.41927 31.017578 376.83008 z M 480.98242 377.21289 C 480.99652 427.80209 480.0781 430.10862 474.50391 441.00586 C 470.13294 449.55086 460.06767 459.89675 451.75781 464.38477 C 439.03293 471.25728 439.9312 470.92165 350.00391 470.93945 C 318.61716 470.9454 291.88787 470.99915 278.05078 470.89844 L 267.60156 470.89844 C 267.61664 476.35826 267.64895 480.56963 267.74219 480.66992 L 267.74219 480.67188 C 267.74419 480.67388 267.79248 480.67573 267.79688 480.67773 C 267.85827 480.70473 268.11405 480.7276 268.50781 480.75 C 268.53041 480.751 268.55648 480.75291 268.58008 480.75391 C 269.8449 480.82211 273.24183 480.86265 277.30273 480.89453 C 277.41355 480.8954 277.46598 480.89744 277.57812 480.89844 L 277.57812 480.89648 C 291.29618 481.00112 318.31821 480.94575 350.00195 480.93945 C 439.92924 480.92165 439.03293 481.25728 451.75781 474.38477 C 460.06767 469.89675 470.13294 459.55086 474.50391 451.00586 C 480.44248 439.39629 481.11349 438.20779 480.98242 377.21289 z "
     id="path3009-5" />
  <path
     style="opacity:0.3;fill:#ffffff;fill-opacity:1;stroke-width:1.08725166"
     d="m 382.0625,31.003906 c -10.15964,-0.01251 -21.70558,0.0043 -34.56836,0.05273 l -79.20703,0.298828 -0.27149,108.679691 -0.27343,108.60546 h 0.0254 l 0.24804,-98.60546 0.27149,-108.679691 79.20703,-0.298828 c 12.86278,-0.04843 24.40872,-0.06524 34.56836,-0.05273 30.47891,0.03753 48.48257,0.34522 52.13281,0.90625 22.7086,3.4904 41.67093,22.53485 45.4043,45.59961 0.60807,3.756843 0.91776,18.862454 0.9707,47.982424 9.7e-4,-35.43098 -0.29966,-53.836677 -0.9707,-57.982424 -3.73337,-23.064764 -22.6957,-42.109209 -45.4043,-45.59961 -3.65024,-0.561031 -21.6539,-0.868721 -52.13281,-0.90625 z m -221.20508,0.337891 c -68.818076,0 -84.742875,0.276233 -89.154295,1.544922 -18.60153,5.34969 -33.253712,19.849402 -38.757813,38.353515 -1.228309,4.129459 -1.499765,20.653582 -1.509765,91.361326 v 10 c 0.01,-70.70774 0.281457,-87.231866 1.509765,-91.361326 5.504101,-18.50411 20.156283,-33.003825 38.757813,-38.353515 4.41142,-1.26869 20.336219,-1.544922 89.154295,-1.544922 h 83.7832 v -10 z M 480.52344,173.14062 c -0.004,1.2852 -0.001,2.12409 -0.006,3.44141 l 0.0625,72.05859 h 0.01 z M 244.64062,374.03906 v 10 c 0,32.50619 0.15441,66.94091 0.15821,87.73242 0.0675,-17.95406 -0.15821,-60.00445 -0.15821,-97.73242 z m 23.10157,0.2461 c 0,44.47812 -0.22512,82.83441 -0.15625,98.5957 0.008,-18.91229 0.15625,-50.86929 0.15625,-88.5957 z"
     id="path3009-1"
     inkscape:connector-curvature="0"
     sodipodi:nodetypes="sccccccccscccccssccccccsccsccccccsccccsc" />
</svg>
